X:38
T:Hooraw For The Blackball Line
M:C|
L:1/8
K:F#PHR
A4F2|\
D2F2 A2dc|B2A2 F2DE|F2dc B2A2|E6 EE|
E2E2 E2D2|C2E2 G2c2|B2BB B2B2|F2  ||
